src/images/youtube-icon.svg

<?xml version="1.0" encoding="UTF-8"?>
<svg width="33px" height="24px" viewBox="0 0 33 24" version="1.1" xmlns="http://www.w3.org/2000/svg" xmlns:xlink="http://www.w3.org/1999/xlink">
    <!-- Generator: Sketch 52.1 (67048) - http://www.bohemiancoding.com/sketch -->
    <title>youtube-icon</title>
    <desc>Created with Sketch.</desc>
    <defs>
        <polygon id="path-1" points="5.41935484e-05 0 31.7935484 0 31.7935484 22.3999639 5.41935484e-05 22.3999639"></polygon>
    </defs>
    <g id="Progress" stroke="none" stroke-width="1" fill="none" fill-rule="evenodd">
        <g id="Homepage--/-Layout" transform="translate(-219.000000, -7818.000000)">
            <g id="footer-bottom" transform="translate(0.000000, 7782.000000)">
                <g id="social" transform="translate(123.000000, 36.000000)">
                    <g id="youtube-icon" transform="translate(96.800000, 0.800000)">
                        <g id="Group-3">
                            <mask id="mask-2" fill="white">
                                <use xlink:href="#path-1"></use>
                            </mask>
                            <g id="Clip-2"></g>
                            <path d="M31.1291897,3.49779613 C30.7635639,2.12091871 29.6863768,1.03668645 28.3181703,0.668712258 C25.8389961,-3.61290323e-05 15.8968284,-3.61290323e-05 15.8968284,-3.61290323e-05 C15.8968284,-3.61290323e-05 5.95466065,-3.61290323e-05 3.47530581,0.668712258 C2.10728,1.03668645 1.02991226,2.12091871 0.664286452,3.49779613 C5.41935484e-05,5.99322839 5.41935484e-05,11.1999639 5.41935484e-05,11.1999639 C5.41935484e-05,11.1999639 5.41935484e-05,16.4065187 0.664286452,18.9023123 C1.02991226,20.279009 2.10728,21.3632413 3.47530581,21.7313961 C5.95466065,22.3999639 15.8968284,22.3999639 15.8968284,22.3999639 C15.8968284,22.3999639 25.8389961,22.3999639 28.3181703,21.7313961 C29.6863768,21.3632413 30.7635639,20.279009 31.1291897,18.9023123 C31.7936026,16.4065187 31.7936026,11.1999639 31.7936026,11.1999639 C31.7936026,11.1999639 31.7936026,5.99322839 31.1291897,3.49779613" id="Fill-1" fill="#FF0000" mask="url(#mask-2)"></path>
                        </g>
                        <polygon id="Fill-4" fill="#FFFFFF" points="12.6451613 15.9272852 20.9548387 11.2001626 12.6451613 6.47267871"></polygon>
                    </g>
                </g>
            </g>
        </g>
    </g>
</svg>

<svg width="33" height="24" xmlns="http://www.w3.org/2000/svg" xmlns:xlink="http://www.w3.org/1999/xlink"><defs><path id="a" d="M0 0h31.794v22.4H0z"/></defs><g fill="none" fill-rule="evenodd"><g transform="translate(.8 .8)"><mask id="b" fill="#fff"><use xlink:href="#a"/></mask><path d="M31.13 3.498a3.994 3.994 0 0 0-2.812-2.83C25.84 0 15.897 0 15.897 0S5.955 0 3.475.669a3.995 3.995 0 0 0-2.81 2.829C0 5.993 0 11.2 0 11.2s0 5.207.664 7.702a3.995 3.995 0 0 0 2.811 2.83c2.48.668 12.422.668 12.422.668s9.942 0 12.421-.669a3.995 3.995 0 0 0 2.811-2.829c.665-2.495.665-7.702.665-7.702s0-5.207-.665-7.702" fill="red" mask="url(#b)"/></g><path fill="#FFF" d="M13.445 16.727L21.755 12l-8.31-4.727z"/></g></svg>
